**kern	**silbe	**harmony	**phrase	**leadinstrument	**rhyme	**timestamp	**harte
*ICvox	*	*M4/4	*	*	*	*	*M4/4
*VRlead	*	*	*	*	*	*	*
*Hstimme	*	*	*	*	*	*	*
*F:	*	*F:	*	*	*	*	*F:
*M4/4	*	*	*	*	*	*	*
*clefF4	*	*	*	*	*	*	*
r;	.	1r;	.	r	.	0	N.C.
=1	=1	=1	=1	=1	=1	=1	=1
*>Letter>A	*>Letter>A	*>Letter>A	*>Letter>A	*>Letter>A	*>Letter>A	*>Letter>A	*>Letter>A
*>Label>Intro	*>Label>Intro	*>Label>Intro	*>Label>Intro	*>Label>Intro	*>Label>Intro	*>Label>Intro	*>Label>Intro
1r	.	1Am;	newline	r	.	0.534	A:1
=2	=2	=2	=2	=2	=2	=2	=2
*>Letter>B	*>Letter>B	*>Letter>B	*>Letter>B	*>Letter>B	*>Letter>B	*>Letter>B	*>Letter>B
*>Label>Verse	*>Label>Verse	*>Label>Verse	*>Label>Verse	*>Label>Verse	*>Label>Verse	*>Label>Verse	*>Label>Verse
4r	.	1B-MM	newline	voice	.	6.13	B-:maj7
16r	.	.	.	.	.	.	.
16F	And	.	.	.	.	.	.
16B-	when	.	.	.	.	.	.
16c	I	.	.	.	.	.	.
8d	go	.	.	.	.	.	.
16e	a-	.	.	.	.	.	.
[16f	-way	.	.	.	A	.	.
4f_	_	.	.	.	.	.	.
=3	=3	=3	=3	=3	=3	=3	=3
4f]	_	1B-MM	.	voice	.	10.078	B-:maj7
16r	.	.	.	.	.	.	.
16F	I	.	.	.	.	.	.
16B-	know	.	.	.	.	.	.
16c	my	.	.	.	.	.	.
8d	heart	.	.	.	.	.	.
16f	can	.	.	.	.	.	.
8g	stay	.	.	.	A	.	.
8f	with	.	.	.	.	.	.
[16e	my	.	.	.	.	.	.
=4	=4	=4	=4	=4	=4	=4	=4
16e]	_	1Amm	.	voice	.	14.026	A:min7
[8.c	love	.	.	.	.	.	.
8c]	_	.	.	.	.	.	.
8r	.	.	.	.	.	.	.
4r	.	.	.	.	.	.	.
16A	It's	.	.	.	.	.	.
16c	un-	.	.	.	.	.	.
16d	-der-	.	.	.	.	.	.
[16A	-stood	.	.	.	B	.	.
=5	=5	=5	=5	=5	=5	=5	=5
8A]	_	1DMm	.	voice	.	17.974	D:9
8r	.	.	.	.	.	.	.
8.r	.	.	.	.	.	.	.
16A	It's	.	.	.	.	.	.
16e	in	.	.	.	.	.	.
16d	the	.	.	.	.	.	.
4c	thands	.	.	.	.	.	.
16B-	of	.	.	.	.	.	.
[16A	my	.	.	.	.	.	.
=6	=6	=6	=6	=6	=6	=6	=6
16A]	_	1Gmm	newline	voice	.	21.921	G:min7
8.F	love	.	.	.	.	.	.
4r	.	.	.	.	.	.	.
4..r	.	.	.	.	.	.	.
16F	And	.	.	.	.	.	.
=7	=7	=7	=7	=7	=7	=7	=7
8A	my	2Amm	.	voice	.	25.845	A:min7
4.c	love	.	.	.	.	.	.
8d	does	2B-MM	.	voice	.	27.807	B-:maj7
4f	it	.	.	.	.	.	.
[8a	good	.	.	.	B	.	.
=8	=8	=8	=8	=8	=8	=8	=8
2a]	_	1GMm	.	voice	.	29.769	G:9/3
4r	.	.	.	.	.	.	.
8.a	Woh	.	.	.	.	.	.
16g	_	.	.	.	.	.	.
=9	=9	=9	=9	=9	=9	=9	=9
*>Letter>C	*>Letter>C	*>Letter>C	*>Letter>C	*>Letter>C	*>Letter>C	*>Letter>C	*>Letter>C
*>Label>Chorus	*>Label>Chorus	*>Label>Chorus	*>Label>Chorus	*>Label>Chorus	*>Label>Chorus	*>Label>Chorus	*>Label>Chorus
4f	woh	1FM	newline	voice	.	33.692	F:maj
4A	woh	.	.	.	.	.	.
4r	.	.	.	.	.	.	.
8.a	Woh	.	.	.	.	.	.
16g	_	.	.	.	.	.	.
=10	=10	=10	=10	=10	=10	=10	=10
4f	woh	1Gmm	.	voice	.	37.674	G:min7
2G	woh	.	.	.	.	.	.
4r	.	.	.	.	.	.	.
=11	=11	=11	=11	=11	=11	=11	=11
4B-	My	1B-MM	.	voice	.	41.657	B-:maj7
4B-	love	.	.	.	.	.	.
8d	does	.	.	.	.	.	.
4f	it	.	.	.	.	.	.
[8f	good	.	.	.	B	.	.
=12	=12	=12	=12	=12	=12	=12	=12
2f]	_	1FM	.	voice	.	45.639	F:maj
2r	.	.	.	.	.	.	.
=13	=13	=13	=13	=13	=13	=13	=13
*>Letter>B	*>Letter>B	*>Letter>B	*>Letter>B	*>Letter>B	*>Letter>B	*>Letter>B	*>Letter>B
*>Label>Verse	*>Label>Verse	*>Label>Verse	*>Label>Verse	*>Label>Verse	*>Label>Verse	*>Label>Verse	*>Label>Verse
4r	.	1B-MM	newline	voice	.	49.621	B-:maj7
16r	.	.	.	.	.	.	.
16F	And	.	.	.	.	.	.
16B-	when	.	.	.	.	.	.
16c	the	.	.	.	.	.	.
8d	cup-	.	.	.	.	.	.
16e	-boards'	.	.	.	.	.	.
4f	bare	.	.	.	C	.	.
16r	.	.	.	.	.	.	.
=14	=14	=14	=14	=14	=14	=14	=14
4r	.	1B-MM	.	voice	.	53.609	B-:maj7
16r	.	.	.	.	.	.	.
16F	I'll	.	.	.	.	.	.
16B-	still	.	.	.	.	.	.
16c	find	.	.	.	.	.	.
8d	some-	.	.	.	.	.	.
8f	-thing	.	.	.	.	.	.
8.g	there	.	.	.	C	.	.
16f	with	.	.	.	.	.	.
=15	=15	=15	=15	=15	=15	=15	=15
8e	my	1Amm	.	voice	.	57.597	A:min7
16c	love	.	.	.	.	.	.
8.A	_	.	.	.	.	.	.
8r	.	.	.	.	.	.	.
4r	.	.	.	.	.	.	.
16r	.	.	.	.	.	.	.
16A	It's	.	.	.	.	.	.
16c	un-	.	.	.	.	.	.
[16d	-der-	.	.	.	.	.	.
=16	=16	=16	=16	=16	=16	=16	=16
16d]	_	1DMm	.	voice	.	61.585	D:9
8.A	-stood	.	.	.	B	.	.
4r	.	.	.	.	.	.	.
16A	It's	.	.	.	.	.	.
16e	ev-	.	.	.	.	.	.
16d	-ery-	.	.	.	.	.	.
8.c	-where	.	.	.	.	.	.
16B-	with	.	.	.	.	.	.
[16A	my	.	.	.	.	.	.
=17	=17	=17	=17	=17	=17	=17	=17
16A]	_	1Gmm	newline	voice	.	65.573	G:min7
8.F	love	.	.	.	.	.	.
4r	.	.	.	.	.	.	.
2r	.	.	.	.	.	.	.
=18	=18	=18	=18	=18	=18	=18	=18
8A	My	2Amm	.	voice	.	69.592	A:min7
16c	love	.	.	.	.	.	.
16A	_	.	.	.	.	.	.
4r	.	.	.	.	.	.	.
8d	does	2B-MM	.	voice	.	71.601	B-:maj7
4f	it	.	.	.	.	.	.
[8a	good	.	.	.	B	.	.
=19	=19	=19	=19	=19	=19	=19	=19
2a]	_	1GMm	.	voice	.	73.61	G:9/3
4r	.	.	.	.	.	.	.
8.a	Woh	.	.	.	.	.	.
16g	_	.	.	.	.	.	.
=20	=20	=20	=20	=20	=20	=20	=20
*>Letter>C	*>Letter>C	*>Letter>C	*>Letter>C	*>Letter>C	*>Letter>C	*>Letter>C	*>Letter>C
*>Label>Chorus	*>Label>Chorus	*>Label>Chorus	*>Label>Chorus	*>Label>Chorus	*>Label>Chorus	*>Label>Chorus	*>Label>Chorus
4f	woh	1FM	newline	voice	.	77.628	F:maj
4A	woh	.	.	.	.	.	.
4r	.	.	.	.	.	.	.
8.a	woh	.	.	.	.	.	.
16g	_	.	.	.	.	.	.
=21	=21	=21	=21	=21	=21	=21	=21
4f	woh	1Gmm	.	voice	.	81.679	G:min7
2G	woh	.	.	.	.	.	.
4r	.	.	.	.	.	.	.
=22	=22	=22	=22	=22	=22	=22	=22
4B-	My	1B-MM	.	voice	.	85.73	B-:maj7
4B-	love	.	.	.	.	.	.
8d	does	.	.	.	.	.	.
4f	it	.	.	.	.	.	.
[8f	good	.	.	.	.	.	.
=23	=23	=23	=23	=23	=23	=23	=23
4f]	_	1FM	.	voice	.	89.781	F:maj
4r	.	.	.	.	.	.	.
4r	.	.	.	.	.	.	.
16r	.	.	.	.	.	.	.
8A	Woh	.	.	.	.	.	.
32A	woh	.	.	.	.	.	.
32G	_	.	.	.	.	.	.
=24	=24	=24	=24	=24	=24	=24	=24
*>Letter>D	*>Letter>D	*>Letter>D	*>Letter>D	*>Letter>D	*>Letter>D	*>Letter>D	*>Letter>D
*>Label>Bridge	*>Label>Bridge	*>Label>Bridge	*>Label>Bridge	*>Label>Bridge	*>Label>Bridge	*>Label>Bridge	*>Label>Bridge
8F	_	2Gmm	newline	voice	.	93.832	G:min7
16G	My	.	.	.	.	.	.
8.B-	love	.	.	.	.	.	.
4r	.	.	.	.	.	.	.
.	.	4CMm	.	voice	.	95.829	C:7/3
16r	.	.	.	.	.	.	.
8d	Woh	.	.	.	.	.	.
.	.	4CMm	.	voice	.	96.827	C:7
32d	woh	.	.	.	.	.	.
32c	_	.	.	.	.	.	.
8B-	_	.	.	.	.	.	.
=25	=25	=25	=25	=25	=25	=25	=25
16c	My	2FM	.	voice	.	97.826	F:maj
4..f	love	.	.	.	.	.	.
4r	.	2AMm	.	voice	.	99.823	A:7
16r	.	.	.	.	.	.	.
16.e	On-	.	.	.	.	.	.
32f	-ly	.	.	.	.	.	.
[16e	my	.	.	.	.	.	.
=26	=26	=26	=26	=26	=26	=26	=26
16e]	_	2B-MM	.	voice	.	101.82	B-:maj7
8.d	love	.	.	.	.	.	.
16r	.	.	.	.	.	.	.
16A	holds	.	.	.	.	.	.
16G	_	.	.	.	.	.	.
16G	the	.	.	.	.	.	.
4E	o-	2CMm	.	voice	.	103.816	C:7
16d	-ther	.	.	.	.	.	.
[8.c	key	.	.	.	D	.	.
=27	=27	=27	=27	=27	=27	=27	=27
8c]	_	2FM	.	voice	.	105.813	F:maj
8r	.	.	.	.	.	.	.
8.r	.	.	.	.	.	.	.
32c	to	.	.	.	.	.	.
16.d	_	.	.	.	.	.	.
.	.	2FMm	.	voice	.	107.81	F:7/3
8A	me	.	.	.	D	.	.
8A	Woh	.	.	.	.	.	.
32A	woh	.	.	.	.	.	.
32G	_	.	.	.	.	.	.
8F	_	.	.	.	.	.	.
=28	=28	=28	=28	=28	=28	=28	=28
16G	my	2Gmm	newline	voice	.	109.807	G:min7
8.B-	love	.	.	.	.	.	.
4r	.	.	.	.	.	.	.
8r	.	4CMm	.	voice	.	111.848	C:7/3
16r	.	.	.	.	.	.	.
8d	Woh	.	.	.	.	.	.
.	.	4CMm	.	voice	.	112.868	C:7
32d	woh	.	.	.	.	.	.
32c	_	.	.	.	.	.	.
8B-	_	.	.	.	.	.	.
=29	=29	=29	=29	=29	=29	=29	=29
16c	my	2FM	.	voice	.	113.888	F:maj
[16f	love	.	.	.	.	.	.
2f]	_	.	.	.	.	.	.
.	.	2AMm	.	voice	.	115.929	A:7
8.r	.	.	.	.	.	.	.
16.e	On-	.	.	.	.	.	.
32f	-ly	.	.	.	.	.	.
[16e	my	.	.	.	.	.	.
=30	=30	=30	=30	=30	=30	=30	=30
16e]	_	2B-MM	.	voice	.	117.969	B-:maj7
8.d	love	.	.	.	.	.	.
16r	.	.	.	.	.	.	.
16A	does	.	.	.	.	.	.
16G	_	.	.	.	.	.	.
16G	it	.	.	.	.	.	.
4E	good	2CMm	.	voice	.	120.009	C:7
16a	to	.	.	.	.	.	.
16g	_	.	.	.	.	.	.
16f	_	.	.	.	.	.	.
16g	_	.	.	.	.	.	.
=31	=31	=31	=31	=31	=31	=31	=31
2f	me	1FM	.	voice	D	122.05	F:maj
2r	.	.	.	.	.	.	.
=32	=32	=32	=32	=32	=32	=32	=32
*>Letter>B	*>Letter>B	*>Letter>B	*>Letter>B	*>Letter>B	*>Letter>B	*>Letter>B	*>Letter>B
*>Label>Solo	*>Label>Solo	*>Label>Solo	*>Label>Solo	*>Label>Solo	*>Label>Solo	*>Label>Solo	*>Label>Solo
1r	.	1B-MM	newline	guitar	.	126.131	B-:maj7
=33	=33	=33	=33	=33	=33	=33	=33
1r	.	1B-MM	.	guitar	.	130.078	B-:maj7
=34	=34	=34	=34	=34	=34	=34	=34
1r	.	1Amm	.	guitar	.	134.026	A:min7
=35	=35	=35	=35	=35	=35	=35	=35
1r	.	1DMm	.	guitar	.	137.973	D:9
=36	=36	=36	=36	=36	=36	=36	=36
1r	.	1Gmm	newline	guitar	.	141.92	G:min7
=37	=37	=37	=37	=37	=37	=37	=37
1r	.	2Amm	.	guitar	.	145.845	A:min7
.	.	2B-MM	.	guitar	.	147.807	B-:maj7
=38	=38	=38	=38	=38	=38	=38	=38
2r	.	1GMm	.	guitar	.	149.769	G:9/3
4r	.	.	.	.	.	.	.
8.a	Woh	.	.	.	.	.	.
16g	_	.	.	.	.	.	.
=39	=39	=39	=39	=39	=39	=39	=39
*>Letter>C	*>Letter>C	*>Letter>C	*>Letter>C	*>Letter>C	*>Letter>C	*>Letter>C	*>Letter>C
*>Label>Chorus	*>Label>Chorus	*>Label>Chorus	*>Label>Chorus	*>Label>Chorus	*>Label>Chorus	*>Label>Chorus	*>Label>Chorus
4f	woh	1FM	newline	voice	.	153.693	F:maj
4A	woh	.	.	.	.	.	.
4r	.	.	.	.	.	.	.
8.a	woh	.	.	.	.	.	.
16g	_	.	.	.	.	.	.
=40	=40	=40	=40	=40	=40	=40	=40
4f	woh	1Gmm	.	voice	.	157.733	G:min7
4.G	woh	.	.	.	.	.	.
4.r	.	.	.	.	.	.	.
=41	=41	=41	=41	=41	=41	=41	=41
4B-	My	1B-MM	.	voice	.	161.773	B-:maj7
4B-	love	.	.	.	.	.	.
8d	does	.	.	.	.	.	.
4f	it	.	.	.	.	.	.
[8f	good	.	.	.	B	.	.
=42	=42	=42	=42	=42	=42	=42	=42
4f]	_	1FM	.	voice	.	165.814	F:maj
4r	.	.	.	.	.	.	.
2r	.	.	.	.	.	.	.
=43	=43	=43	=43	=43	=43	=43	=43
*>Letter>B	*>Letter>B	*>Letter>B	*>Letter>B	*>Letter>B	*>Letter>B	*>Letter>B	*>Letter>B
*>Label>Verse	*>Label>Verse	*>Label>Verse	*>Label>Verse	*>Label>Verse	*>Label>Verse	*>Label>Verse	*>Label>Verse
4r	.	1B-MM	newline	voice	.	169.854	B-:maj7
16r	.	.	.	.	.	.	.
16F	Don't	.	.	.	.	.	.
16B-	e-	.	.	.	.	.	.
16c	-ver	.	.	.	.	.	.
8d	ask	.	.	.	.	.	.
16e	me	.	.	.	.	.	.
4f	why	.	.	.	E	.	.
16r	.	.	.	.	.	.	.
=44	=44	=44	=44	=44	=44	=44	=44
4r	.	1B-MM	.	voice	.	173.842	B-:maj7
16r	.	.	.	.	.	.	.
16F	I	.	.	.	.	.	.
16B-	ne-	.	.	.	.	.	.
16c	-ver	.	.	.	.	.	.
8d	say	.	.	.	.	.	.
16f	good-	.	.	.	b	.	.
8.g	-bye	.	.	.	E	.	.
16f	to	.	.	.	.	.	.
[16e	my	.	.	.	E	.	.
=45	=45	=45	=45	=45	=45	=45	=45
16e]	_	1Amm	.	voice	.	177.83	A:min7
[8.c	love	.	.	.	.	.	.
8c]	_	.	.	.	.	.	.
8r	.	.	.	.	.	.	.
4r	.	.	.	.	.	.	.
16A	It's	.	.	.	.	.	.
16c	un-	.	.	.	.	.	.
16d	-der-	.	.	.	.	.	.
[16A	-stood	.	.	.	B	.	.
=46	=46	=46	=46	=46	=46	=46	=46
8A]	_	1DMm	.	voice	.	181.818	D:9
8r	.	.	.	.	.	.	.
4r	.	.	.	.	.	.	.
8r	.	.	.	.	.	.	.
16A	It's	.	.	.	.	.	.
16d	e-	.	.	.	.	.	.
16c	-very-	.	.	.	.	.	.
16A	-where	.	.	.	C	.	.
16c	_	.	.	.	.	.	.
16c	with	.	.	.	.	.	.
=47	=47	=47	=47	=47	=47	=47	=47
16B-	my	1Gmm	newline	voice	.	185.806	G:min7
16A	_	.	.	.	.	.	.
8G	_	.	.	.	.	.	.
16F	love	.	.	.	.	.	.
8.G	_	.	.	.	.	.	.
2r	.	.	.	.	.	.	.
=48	=48	=48	=48	=48	=48	=48	=48
8A	My	2Amm	.	voice	.	189.73	A:min7
16c	love	.	.	.	.	.	.
16A	_	.	.	.	.	.	.
4r	.	.	.	.	.	.	.
8d	does	2B-MM	.	voice	.	191.692	B-:maj7
4f	it	.	.	.	.	.	.
[8a	good	.	.	.	B	.	.
=49	=49	=49	=49	=49	=49	=49	=49
4..a]	_	1GMm	.	voice	.	193.654	G:9/3
8.a	woh	.	.	.	.	.	.
8r	.	.	.	.	.	.	.
8.a	woh	.	.	.	.	.	.
16g	_	.	.	.	.	.	.
=50	=50	=50	=50	=50	=50	=50	=50
*>Letter>C	*>Letter>C	*>Letter>C	*>Letter>C	*>Letter>C	*>Letter>C	*>Letter>C	*>Letter>C
*>Label>Chorus	*>Label>Chorus	*>Label>Chorus	*>Label>Chorus	*>Label>Chorus	*>Label>Chorus	*>Label>Chorus	*>Label>Chorus
4f	woh	1FM	newline	voice	.	197.579	F:maj
4A	woh	.	.	.	.	.	.
4r	.	.	.	.	.	.	.
8.a	woh	.	.	.	.	.	.
16g	_	.	.	.	.	.	.
=51	=51	=51	=51	=51	=51	=51	=51
4f	woh	1Gmm	.	voice	.	201.619	G:min7
2G	woh	.	.	.	.	.	.
4r	.	.	.	.	.	.	.
=52	=52	=52	=52	=52	=52	=52	=52
4B-	My	1B-MM	.	voice	.	205.659	B-:maj7
4B-	love	.	.	.	.	.	.
8d	does	.	.	.	.	.	.
4f	it	.	.	.	.	.	.
[8f	good	.	.	.	.	.	.
=53	=53	=53	=53	=53	=53	=53	=53
4f]	_	1FM	.	voice	.	209.699	F:maj
2r	.	.	.	.	.	.	.
8A	Woh	.	.	.	.	.	.
24A	woh	.	.	.	.	.	.
24G	_	.	.	.	.	.	.
24F	_	.	.	.	.	.	.
=54	=54	=54	=54	=54	=54	=54	=54
*>Letter>D2	*>Letter>D2	*>Letter>D2	*>Letter>D2	*>Letter>D2	*>Letter>D2	*>Letter>D2	*>Letter>D2
*>Label>Coda	*>Label>Coda	*>Label>Coda	*>Label>Coda	*>Label>Coda	*>Label>Coda	*>Label>Coda	*>Label>Coda
16G	I	2Gmm	newline	voice	.	213.74	G:min7
8.B-	love	.	.	.	.	.	.
4r	.	.	.	.	.	.	.
8.r	.	4CMm	.	voice	.	215.8	C:7/3
8d	Woh	.	.	.	.	.	.
.	.	4CMm	.	voice	.	216.831	C:7
32d	woh	.	.	.	.	.	.
32c	_	.	.	.	.	.	.
8B-	_	.	.	.	.	.	.
=55	=55	=55	=55	=55	=55	=55	=55
16c	my	2FM	.	voice	.	217.861	F:maj
2f	love	.	.	.	.	.	.
.	.	2AMm	.	voice	.	219.922	A:7
8.r	.	.	.	.	.	.	.
8d	On-	.	.	.	.	.	.
16f	-ly	.	.	.	.	.	.
[16a	my	.	.	.	.	.	.
=56	=56	=56	=56	=56	=56	=56	=56
16a]	_	2B-MM	.	voice	.	221.983	B-:maj7
8.g	love	.	.	.	.	.	.
16r	.	.	.	.	.	.	.
16e	does	.	.	.	.	.	.
16d	_	.	.	.	.	.	.
16d	it	.	.	.	.	.	.
2b-	good	2CMm	.	voice	.	224.044	C:7
=57	=57	=57	=57	=57	=57	=57	=57
4r	.	1CMm;	.	voice	.	226.104	C:7
8a	to	.	.	.	.	.	.
8a	_	.	.	.	.	.	.
24a	_	.	.	.	.	.	.
24g	_	.	.	.	.	.	.
24f	_	.	.	.	.	.	.
16d	_	.	.	.	.	.	.
8.c	_	.	.	.	.	.	.
8r	.	.	.	.	.	.	.
=58	=58	=58	=58	=58	=58	=58	=58
2f	me	2FM	newline	voice	.	230.226	F:maj
8a	woh	2Amm	.	voice	.	232.316	A:min7
8g	woh	.	.	.	.	.	.
8f	woh	.	.	.	.	.	.
8e	woh	.	.	.	.	.	.
=59	=59	=59	=59	=59	=59	=59	=59
4d	woh-	2B-MM	.	voice	.	234.405	B-:maj7
4B-	-ho	.	.	.	.	.	.
4e	woh-	2CMm	.	voice	.	236.495	C:7
4c	-ho	.	.	.	.	.	.
=60	=60	=60	=60	=60	=60	=60	=60
2f	oh	1FM	.	voice	.	238.585	F:maj
2r	.	.	.	.	.	.	.
r;	.	1r;	.	r	.	245.899	N.C.
r;	.	1r;	.	r	.	247.771	N.C.
*-	*-	*-	*-	*-	*-	*-	*-
!!!BillboardChartDate: 1973/04/14
!!!BillboardPeak: 1
!!!BillboardWeeksOnChart: 18
!!!COC: Paul McCartney
!!!ENC: Nathaniel Condit-Schultz
!!!EST: Awating manual error checking and editing.
!!!OTL: My Love
!!!RDF**chordsym: original McGill chord annotation + (implied pitch class set, with bass pitch in first position)
!!!RDF**harmony: **recip + pitch class of root + harmonic quality
!!!RDF**leadinstrument: original McGill primary instrumentation annotation
!!!RDF**phrase: newline = linebreak in original McGill transcription
!!!RDF**timestamp: McGill audio timestamp in seconds
!!!RDT: 2017/01/12/
!!!SampleActualRank: 73
!!!SampleID#: 1163
!!!SampleTargetRank: 73
